_includes/icons/ios-play.svg

<svg fill="#666" height="50" viewBox="0 0 50 50" width="50" xmlns="http://www.w3.org/2000/svg"><path d="m10 5.25v39.5l1.5-.875 30.59375-18 1.46875-.875-1.46875-.875-30.59375-18zm2 3.5 27.59375 16.25-27.59375 16.25z"/></svg>

<svg xmlns="http://www.w3.org/2000/svg" viewBox="0 0 50 50" width="50" height="50" fill="#666"><path d="M 10 5.25 L 10 44.75 L 11.5 43.875 L 42.09375 25.875 L 43.5625 25 L 42.09375 24.125 L 11.5 6.125 Z M 12 8.75 L 39.59375 25 L 12 41.25 Z"/></svg>
